X: 50
T: No_143_Song_of_the_Limo.krn
N: Derived from No_143_Song_of_the_Limo.krn
%%abc-version 2.0
%%abcx-abcm2ps-target-version 5.9.1 (29 Sep 2008)
%%abc-creator hum2abc beta
%%abcx-conversion-date 2019/03/15 08:37:56
%%humdrum-veritas 1997338509
%%humdrum-veritas-data 2621160720
%%linebreak <none>
%%barnumbers 0
L: 1/8
M: 3/4
K: E clef=bass
[K:clef=bass][M:3/4]G,3^A,G,2 | 
(3G,G,G,E,2D,C, ]|:  
(3G,G,G,E,2D,C, | 
(3E,E,C, D,3/C,/C,2 ||  
[M:2/4](3D,C,C, D,3/C,/ | 
C,2C,C, | 
E,3/D,/ (3E,E,C, | 
D,C, C,C, | 
D,C,C,2 | 
D,C,C,2 | 
C,C,C,2 | 
E,E,3//E,// (3E,E,C, | 
D,D,D,2 | 
E,E,3//E,// (3E,E,C, | 
D,D,D,2 :|]  



